X: 736
P: Longways for as many as will
M: 6/4
L: 1/4
K: G
[|\
d>cB c>BA | ddd d2B/c/ | d>cB c>BA | BGG G3 |]\
g>fe f>ed | e>dc d>cB | c>BA d2c | BGG G3 |]

